X: 1415
T: Müptelayım
C: Dede Efendi
O: Turkey
F: http://compmusic.upf.edu/node/140
N: beyati--sarki--agiraksak--muptelayim--dede_efendi
N: makam= beyati
N: form= sarki
N: usul= agiraksak = 9/4
M: 9/4
L: 1/16
K: C _2/4B   
Q: 1/4=72
%%MIDI tuningsystem comma53
d8 z2d4e2 e2d2 c2_1/4B2 d3c B2d2 c2e2  | \
w:   | 
d2c4_1/4B2 z2e2 d2c2 c2B4A2 A8 z4  | 
w:   | 
e4 f4 f2g2 f2e2 f6z2 e4 f2e2 a4  | \
w:   | 
g3f e2g2 f3e d2f2 e3d c2e2 d2_7/8e2 d2e2 g^fed  | 
w:   | 
d2c4_1/4B2 z2e2 d2e2 d2c4de dcBA B2c2 B2d2  | \
w:   | 
dedc c3_1/4B z2d4_7/8e2 g^fed c3B B4 A4 z4  | 
w:   | 
a3g g3f f3e e3d g^f_7/8ed c2_1/4B2 =e2df e2d2 c3B  | 
w:   | 
A_1/4Bc4BA A8 a3g ^f2g2 a6g2 c'2_1/4ba  | \
w:   | 
a8 a3g ^f2g2 a8 a4 a_7/8bag f2g2  | 
w:   | 
a8 z2d4e2 fed2 c3_1/4B c2d2 c2d2 c2B2  | \
w:   | 
d8 d2_e2 ^f2g2 _1/4b3a g3f g3f e4 f2g2  | 
w:   | 
^f4 g4 z2g4f2 f2^ef e2f2 g6f2 _b2ag  | \
w:   | 
g8 a3g f2a2 a2g2 f2e2 f3e d4 d2c'2  | 
w:   | 
c'2_1/4b2 a3g g3f f2e2 e3d d2_e2 g^fed c3_1/4B z4  | \
w:   | 
_1/4B2c2 d2e2 f2g2 gagf f4 f2e2 z2g2 f2e2 f2e2  | 
w:   | 
g3f e2g2 f2g2 f2a2 a3g g3^f gf_ed c4 d2e2  | \
w:   | 
g^f_ed c3_1/4B z2e2 d2e2 d2c4de dcBA B2c2 B2c2  | 
w:   | 
dedc c3_1/4B z2d4_e2 g^fed c3B B4 A4 z4  | \
w:   | 
a3g g3f f3e e3d g^f_7/8ed c2_1/4B2 =e2df e2d2 c3B  | 
w:   | 
A_1/4Bc4BA A8 A8 z8 z4  | |


